X: 242
M: C
L: 1/8
K: D
d3A d3A | d>cd>e f>ed2 |\
f>ef>g a2g>f | e2e>e e3 :|\
|: A |\
e>de>f ecA2 | e>de>f g4 |\
f>ef>g a2g>f | Te3d d3 :|

